X:1
T:Title
%%score { ( 1 3 ) | 2 }
L:1/8
M:4/4
K:Ab
V:1 treble nm="Grand Piano"
V:3 treble 
V:2 bass 
V:1
 z4 z2[Q:1/4=100] [CE]>[CF] | [CA]2 [Ec]2 [CA]2 [CE]>[C=E] | F2 A2 E2 E>F | %3
[M:3/4] [CA]2 [Ec]2 [CA]2 |[M:1/4] [EG]>[EA] |[M:9/8] [=DB]2 [DF]- [DF] B2- Bc>d | %6
[M:4/4] e2 c2 [DGB]2 [CFA]>[EGB] |[M:3/4] [Ec]2 [A,=EA]2 F2 |[M:1/4] A>F |[M:4/4] E2 c2 E B3 | %10
[M:3/4] [CA]6 |[M:1/4] c>B |[M:4/4] B2 [CA]4 [=EA]>[EA] | [FB]2 [FA]4 F>F | E2 [EA]2 [EB]2 [Ec]2 | %15
 B6 z2 |[M:3/4] e2 c4 |[M:1/4] B>c |[M:4/4] [Fe]2 [Fd]4 [FA]>F | E2 [FA][=EB] cA B2 |[M:3/4] A6 |] %21
V:2
 z4 z2 [A,,A,]>[A,,A,] | [A,,E,]2 [A,,A,]2 [A,,A,]2 [A,,A,]>[A,,A,] | %2
 [D,A,D]2 [F,A,D]2 [A,C]2 [A,C]>[A,C] |[M:3/4] [A,,A,]2 [A,,A,]2 [A,,A,]2 |[M:1/4] [C,A,]>[C,A,] | %5
[M:9/8] [B,,A,]2 [B,,A,]- [B,,A,] [E,G,D]2- [E,G,D][K:treble][A,E]>[A,B,E] | %6
[M:4/4] [A,CA]2 [A,EA]2[K:bass] E,2 F,>E, |[M:3/4] A,2 C,2 [D,A,]2 |[M:1/4] [D,F,D]>[D,A,D] | %9
[M:4/4] [E,A,C]2 [E,A,E]2 [E,G,D] [E,G,D]3 |[M:3/4] [A,,A,]6 |[M:1/4] [E,G,E]>[E,G,D] | %12
[M:4/4] [E,G,D]2 [A,,A,]4 [C,A,]>[C,A,] | [D,A,]2 [D,A,]4 [D,A,D]>[D,A,D] | %14
 [C,A,]2 [C,A,]2 [B,,G,]2 [A,,A,]2 | [E,G,E]2 [F,A,]2 [G,B,]2[K:treble] [A,E]>[A,B,E] | %16
[M:3/4] [A,CA]2 [A,EA]4 |[M:1/4] [A,DG]>[A,C_G] |[M:4/4][K:bass] [D,A,]2 [D,A,]4 [D,D]>[D,A,D] | %19
 [C,A,]2 [D,A,][D,A,] [E,A,E][E,CE] [E,DE]2 |[M:3/4] [A,CE]6 |] %21
V:3
 x8 | x8 | x8 |[M:3/4] x6 |[M:1/4] x2 |[M:9/8] x9 |[M:4/4] x8 |[M:3/4] x6 |[M:1/4] x2 |[M:4/4] x8 | %10
[M:3/4] x6 |[M:1/4] x2 |[M:4/4] x8 | x8 | x8 | z2 =D2 E2 c>d |[M:3/4] x6 |[M:1/4] x2 |[M:4/4] x8 | %19
 x8 |[M:3/4] x6 |] %21

